X:183
T: DAS LAUB FAELLT VON DEN BAEUMEN
N: B0218
O: Europa, Mitteleuropa, Deutschland
R: Jahreszeiten - Lied, Herbst
M: 6/8
L: 1/16
K: E
B,2 | E4F2=G3FE2 | B6F4
A2 | =G3FE2D4E2 | F6z4
E2 | B3BB2=G4E2 | e6=c4
A2 | =G3FE2F3ED2 | E6z4

@@@ Tune index: 1986
